resources/svg/n64-o.svg

<svg xmlns="http://www.w3.org/2000/svg" viewBox="0 0 15 15" fill="none"><path d="M4.5 4V7M3 5.5H6M9 5.5H10M11 6.5H12M4.5 2.5H3.5C1.84315 2.5 0.5 3.84315 0.5 5.5V10.3377C0.5 10.9796 1.02037 11.5 1.66228 11.5C2.16256 11.5 2.60671 11.1799 2.76491 10.7053L3.5 8.5H4.59501C5.10876 8.5 5.53893 8.88929 5.59005 9.4005L5.85074 12.0074C5.93547 12.8548 6.64847 13.5 7.5 13.5C8.35153 13.5 9.06452 12.8548 9.14926 12.0074L9.40995 9.4005C9.46107 8.8893 9.89124 8.5 10.405 8.5H11.5L12.2351 10.7053C12.3933 11.1799 12.8374 11.5 13.3377 11.5C13.9796 11.5 14.5 10.9796 14.5 10.3377V5.5C14.5 3.84315 13.1569 2.5 11.5 2.5H10.5L9.5 1.5H5.5L4.5 2.5Z" stroke="black"/></svg>

<svg xmlns="http://www.w3.org/2000/svg" viewBox="0 0 15 15" fill="none"><path d="M4.5 4v3M3 5.5h3m3 0h1m1 1h1m-7.5-4h-1a3 3 0 00-3 3v4.838a1.162 1.162 0 002.265.367L3.5 8.5h1.095a1 1 0 01.995.9l.26 2.607a1.657 1.657 0 003.3 0L9.41 9.4a1 1 0 01.995-.9H11.5l.735 2.205a1.162 1.162 0 002.265-.367V5.5a3 3 0 00-3-3h-1l-1-1h-4l-1 1z" stroke="currentColor"/></svg>
